X: 1
T: Helen Ross's Birthday
C: E. Bruce Ross (April 1977)
N: chords by Barbara McOwen
S: handwritten MS by Barbara McOwen (SRSNH 3/94)
R: reel
Z: 2006 John Chambers <jc:trillian.mit.edu>
M: C|
L: 1/8
K: D
|: "D"f2fd "A7"fage | "D"fdec dAFA | "D"f3d "A7"Agec | "D"Aafd "A7"(3cde cA |
|  "D"f2fd "A7"fage | "D"fdec dAFA | "D"FAdA "Bm"GAcA | "A7"dAGE "D"FDDz :|
|: "D"A,3D "A7"FDGE | "D"FdAG "D7"FDDd | "G"B2Bd "D"F2FA | "Em"GFFE "A7"EDEF |
|  "D"A,3D "A7"FDGE | "D"FdAG FDDF | "D"A,DCE "Bm"DFEG | "A7"Fddc "D"d2z2 :|
